!!!SOCIAL_FUNCTION:	songs with treatment of the sick
!!!PDT:	1956
!!!OTL: No_206_The_White_Sun-Lady_-_part_2..krn
!!!LANG: Non-Tone
!!!LING_GROUP: Muskogean
!!!REG: Florida
**kern
*staff1
=1-
*clefG2
*k[b-e-a-d-]
*M2/4
8.f/L
16f/Jk
4f/
=2
8f/L
8f/J
8f/L
8f/J
=3
4b-\
8an/
8r
=4
8.e-/L
16e-/Jk
4e-/
=5
8e-/L
8e-/J
8e-/L
8e-/J
=6
4a-/
8e-/L
8e-/J
=7||
*M3/4
8.e-/L
16e-/Jk
8e-/
4.r
=8!|:
*M2/4
8.f/L
16f/Jk
4f/
=9
8f/L
8f/J
8f/L
8f/J
=10
4b-\
8an/
8r
=11
8.e-/L
16e-/Jk
4e-/
=12
8e-/L
8e-/J
8e-/L
8e-/J
=13||
*M3/4
4a-/
8e-/L
8e-/J
4r
=14
8e-/L
8e-/J
2r
=15:|!
*M2/4
8e-/L
8e-/J
4r
=16
4.r
8e-/
=17||
*M3/4
8e-/L
8e-/J
4.r
8e-/
=18||
*M2/4
4..b-\
16a-/
=19
4..b-\
16a-/
=20
4b-\
8.a-/L
16f/Jk
=21
[2a-/
=22||
*M3/4
8.a-/L]
16a-/Jk
4..f/
16e-/
=23
2e-/
8.e-/L
16cc/Jk
=24||
*M2/4
4..b-\
16a-/
=25
[2b-\
=26
8.b-\L]
16b-\Jk
8a-/L
8f/J
=27
[2a-/
=28
4a-/]
4f/
=29||
*M3/4
2e-/
8.r
16cc\
=30||
*M2/4
4..b-\
16a-/
=31
4..b-\
16a-/
=32
4b-\
8.a-/L
16f/Jk
=33
[2a-/
=34
8.a-/L]
16a-/Jk
4f/
=35
2e-/
==
*-
